neru-light-classic/22x22/emotes/face-sick-symbolic.svg

<svg xmlns="http://www.w3.org/2000/svg" width="16" height="16"><path d="M8 1C4.13 1 1 4.13 1 8c0 3.86 3.13 7 7 7s7-3.14 7-7c0-3.87-3.13-7-7-7zM5 5c.55 0 1 .45 1 1s-.45 1-1 1-1-.45-1-1 .45-1 1-1zm6 0c.55 0 1 .45 1 1s-.45 1-1 1-1-.45-1-1 .45-1 1-1zM4.29 7.98c.09 0 .19.03.27.08.73.44 1.18 1.16 1.35 1.94h4.18c.18-.78.63-1.47 1.35-1.91.11-.07.24-.09.37-.06.43.1.53.66.16.9-.95.58-1.27 1.81-.69 2.75.1.16.24.32.38.44.5.46-.19 1.21-.69.75-.2-.19-.39-.42-.53-.66-.24-.37-.36-.8-.41-1.21H5.97c-.05.41-.17.8-.41 1.18-.15.25-.32.47-.53.66-.5.46-1.19-.29-.69-.75.14-.13.28-.28.38-.44.58-.94.26-2.17-.69-2.75-.37-.21-.31-.77.1-.9h.06c.03-.01.06-.02.1-.02z" fill="#1e333d"/></svg>

<svg xmlns="http://www.w3.org/2000/svg" width="16" height="16" version="1.1">
 <path style="fill:#1e333d" d="M 8,1 C 4.13,1 1,4.13 1,8 1,11.86 4.13,15 8,15 11.87,15 15,11.86 15,8 15,4.13 11.87,1 8,1 Z M 5,5 C 5.55,5 6,5.45 6,6 6,6.55 5.55,7 5,7 4.45,7 4,6.55 4,6 4,5.45 4.45,5 5,5 Z M 11,5 C 11.55,5 12,5.45 12,6 12,6.55 11.55,7 11,7 10.45,7 10,6.55 10,6 10,5.45 10.45,5 11,5 Z M 4.29,7.98 C 4.38,7.98 4.48,8.01 4.56,8.06 5.29,8.5 5.74,9.22 5.91,10 H 10.09 C 10.27,9.22 10.72,8.53 11.44,8.09 11.55,8.02 11.68,8 11.81,8.03 12.24,8.13 12.34,8.69 11.97,8.93 11.02,9.51 10.7,10.74 11.28,11.68 11.38,11.84 11.52,12 11.66,12.12 12.16,12.58 11.47,13.33 10.97,12.87 10.77,12.68 10.58,12.45 10.44,12.21 10.2,11.84 10.08,11.41 10.03,11 H 5.97 C 5.92,11.41 5.8,11.8 5.56,12.18 5.41,12.43 5.24,12.65 5.03,12.84 4.53,13.3 3.84,12.55 4.34,12.09 4.48,11.96 4.62,11.81 4.72,11.65 5.3,10.71 4.98,9.48 4.03,8.9 3.66,8.69 3.72,8.13 4.13,8 4.15,8 4.17,8 4.19,8 4.22,7.99 4.25,7.98 4.29,7.98 Z"/>
</svg>
